Newaita-dark/apps/24/com.github.bartzaalberg.alias.svg

<svg height="24pt" viewBox="0 0 24 24" width="24pt" xmlns="http://www.w3.org/2000/svg" xmlns:xlink="http://www.w3.org/1999/xlink"><linearGradient id="a"><stop offset="0" stop-opacity=".313725"/><stop offset=".222222" stop-opacity=".27451"/><stop offset="1" stop-opacity="0"/></linearGradient><radialGradient id="b" cx="450.90894" cy="189.57936" gradientTransform="matrix(.00000013 -.0585994 -.105479 -.00000008 33.392364 47.696499)" gradientUnits="userSpaceOnUse" r="21.166656" xlink:href="#a"/><radialGradient id="c" cx="450.90894" cy="189.57936" gradientTransform="matrix(-.00000013 .0585994 .105479 .00000008 -9.57759 -5.645611)" gradientUnits="userSpaceOnUse" r="21.166656" xlink:href="#a"/><radialGradient id="d" cx="450.90894" cy="189.57936" gradientTransform="matrix(-.00000013 -.0585994 .105479 -.00000008 -9.57759 47.696499)" gradientUnits="userSpaceOnUse" r="21.166656" xlink:href="#a"/><radialGradient id="e" cx="450.90894" cy="189.57936" gradientTransform="matrix(.00000013 .0585994 -.105479 .00000008 33.392363 -5.645611)" gradientUnits="userSpaceOnUse" r="21.166656" xlink:href="#a"/><linearGradient id="f" gradientTransform="matrix(.01002 0 0 .0468795 9.349039 10.079088)" gradientUnits="userSpaceOnUse" x1="255.32306" x2="255.32304" y1="233.5" y2="254.66666"><stop offset="0" stop-opacity=".27451"/><stop offset="1" stop-opacity="0"/></linearGradient><linearGradient id="g" gradientUnits="userSpaceOnUse" x1="254" x2="254" y1="-168.66667" y2="233.5"><stop offset="0" stop-color="#64b5f6"/><stop offset="1" stop-color="#42a5f5"/></linearGradient><linearGradient id="h" gradientUnits="userSpaceOnUse" x1="11.663966" x2="11.663966" y1="21.0253985937" y2="2.17207772546"><stop offset="0" stop-color="#bdbdbd"/><stop offset="1" stop-color="#e0e0e0"/></linearGradient><path d="m13.644531 21.027344h1.984375v-.996094h-1.984375zm0 0" fill="url(#b)"/><path d="m10.171875 21.027344h-1.984375v.992187h1.984375zm0 0" fill="url(#c)"/><path d="m10.171875 21.027344h-1.984375v-.996094h1.984375zm0 0" fill="url(#d)"/><path d="m13.644531 21.027344h1.984375v.992187h-1.984375zm0 0" fill="url(#e)"/><path d="m10.171875 20.777344h3.472656v1.242187h-3.472656zm0 0" fill="url(#f)"/><path d="m253.975747-168.671091c111.072726 0 201.147458 89.991406 201.147458 201.064133 0 111.072726-90.074732 201.147458-201.147458 201.147458-110.989402 0-201.064133-90.074732-201.064133-201.147458 0-111.072727 90.074731-201.064133 201.064133-201.064133zm0 0" fill="url(#g)" stroke="#333" stroke-linecap="round" stroke-width="3" transform="matrix(.0468795 0 0 .0468795 0 10.079087)"/><path d="m11.90625 21.027344c-5.222656 0-9.425781-4.207032-9.425781-9.429688 0-.03125 0-.058594 0-.089844.050781 5.179688 4.234375 9.332032 9.425781 9.332032s9.378906-4.152344 9.425781-9.332032c0 .03125.003907.058594.003907.089844 0 5.222656-4.207032 9.429688-9.429688 9.429688zm0 0" fill-opacity=".196078"/><path d="m11.90625 2.171875c-5.222656 0-9.425781 4.203125-9.425781 9.425781v.09375c.050781-5.179687 4.234375-9.335937 9.425781-9.335937s9.378906 4.15625 9.425781 9.335937c0-.03125.003907-.0625.003907-.09375 0-5.222656-4.207032-9.425781-9.429688-9.425781zm0 0" fill="#fff" fill-opacity=".392157"/><path d="m11.90625 2.101562c-5.257812 0-9.496094 4.238282-9.496094 9.496094 0 5.261719 4.238282 9.5 9.496094 9.5 5.261719 0 9.5-4.238281 9.5-9.5 0-5.257812-4.238281-9.496094-9.5-9.496094zm0 .140626c5.1875 0 9.359375 4.171874 9.359375 9.355468 0 5.1875-4.171875 9.359375-9.359375 9.359375-5.183594 0-9.355469-4.171875-9.355469-9.359375 0-5.183594 4.171875-9.355468 9.355469-9.355468zm0 0" fill="#212121"/><path d="m14.359375 5.886719c-1.417969 0-2.984375.027343-4.269531 1.027343-1.371094 1.0625-2.152344 3.082032-2.152344 6.660157v2.488281c-.003906.273438.136719.523438.371094.660156.234375.136719.523437.136719.757812 0 .230469-.136718.375-.386718.371094-.660156v-2.488281c0-.441407.011719-.847657.035156-1.226563h4.417969v3.714844c-.003906.273438.140625.523438.371094.660156.234375.136719.523437.136719.757812 0 .234375-.136718.375-.386718.371094-.660156v-4.355469c.007813-.074219.007813-.144531 0-.214843v-4.855469c0-.414063-.335937-.75-.75-.75-.09375 0-.1875 0-.28125 0zm-.46875 1.511719v3.453124h-4.246094c.273438-1.503906.78125-2.304687 1.363281-2.753906.710938-.554687 1.71875-.671875 2.882813-.699218zm0 0" fill="url(#h)"/><path d="m14.359375 5.886719c-1.417969 0-2.984375.027343-4.269531 1.027343-1.371094 1.0625-2.152344 3.082032-2.152344 6.660157v.375c0-3.574219.78125-5.59375 2.152344-6.660157 1.285156-.996093 2.851562-1.023437 4.269531-1.023437h.28125c.414063 0 .75.335937.75.75v-.378906c0-.414063-.335937-.75-.75-.75-.09375 0-.1875 0-.28125 0zm-4.636719 4.964843c-.027344.117188-.054687.246094-.078125.375h4.246094v-.375zm5.667969.640626v.214843c.007813-.074219.007813-.144531 0-.214843zm0 0" fill="#fff"/><path d="m13.890625 7.394531c-1.164063.023438-2.171875.144531-2.882813.695313-.582031.453125-1.089843 1.253906-1.363281 2.753906h.105469c.285156-1.183594.746094-1.859375 1.257812-2.257812.710938-.550782 1.71875-.671876 2.882813-.695313zm1.5 4.589844v.210937c.007813-.070312.007813-.140624 0-.210937zm-5.917969.359375c-.023437.375-.035156.785156-.035156 1.222656v.496094c0-.4375.011719-.847656.035156-1.222656h4.417969v-.496094zm-1.535156 3.714844v.496094c-.003906.269531.136719.523437.371094.660156.234375.136718.523437.136718.757812 0 .230469-.136719.375-.390625.371094-.660156v-.496094c.003906.269531-.140625.523437-.371094.660156-.234375.136719-.523437.136719-.757812 0s-.375-.390625-.371094-.660156zm5.953125 0v.496094c-.003906.269531.140625.523437.371094.660156.234375.136718.523437.136718.757812 0 .234375-.136719.375-.390625.371094-.660156v-.496094c.003906.269531-.136719.523437-.371094.660156s-.523437.136719-.757812 0c-.230469-.136719-.375-.390625-.371094-.660156zm0 0" fill-opacity=".235294"/><path d="m306.304083-89.428658c-30.247112 0-63.660588.583278-91.074636 21.914574-29.247207 22.664502-45.912283 65.743722-45.912283 142.069766v53.078265c-.083325 5.832776 2.916389 11.1656 7.915911 14.081988 4.999523 2.916388 11.1656 2.916388 16.165123 0 4.916197-2.916388 7.999236-8.249212 7.915911-14.081988v-53.078265c0-9.415767.249976-18.081606.749928-26.164168h94.241001v79.242433c-.083326 5.832776 2.999713 11.1656 7.91591 14.081988 4.999523 2.916388 11.165601 2.916388 16.165123 0 4.999523-2.916388 7.999236-8.249212 7.915911-14.081988v-92.907795c.166651-1.583182.166651-3.083039 0-4.582895v-103.573443c0-8.83249-7.165982-15.998472-15.998472-15.998472-1.999809 0-3.999618 0-5.999427 0zm-9.999045 32.24692v73.659633h-90.574684c5.832776-32.08027 16.665075-49.161972 29.080556-58.74439 15.165218-11.832204 36.663166-14.331965 61.494128-14.915243zm0 0" fill="none" stroke="#212121" stroke-linecap="round" stroke-linejoin="round" stroke-width="3" transform="matrix(.0468795 0 0 .0468795 0 10.079087)"/></svg>

<?xml version="1.0" encoding="UTF-8"?>
<svg xmlns="http://www.w3.org/2000/svg" xmlns:xlink="http://www.w3.org/1999/xlink" width="24pt" height="24pt" viewBox="0 0 24 24" version="1.1">
<defs>
<radialGradient id="radial0" gradientUnits="userSpaceOnUse" cx="450.90894" cy="189.57936" fx="450.90894" fy="189.57936" r="21.166656" gradientTransform="matrix(0.000000130628,-0.0585994,-0.105479,-0.0000000761539,33.392364,47.696499)">
<stop offset="0" style="stop-color:rgb(0%,0%,0%);stop-opacity:0.313725;"/>
<stop offset="0.222222" style="stop-color:rgb(0%,0%,0%);stop-opacity:0.27451;"/>
<stop offset="1" style="stop-color:rgb(0%,0%,0%);stop-opacity:0;"/>
</radialGradient>
<radialGradient id="radial1" gradientUnits="userSpaceOnUse" cx="450.90894" cy="189.57936" fx="450.90894" fy="189.57936" r="21.166656" gradientTransform="matrix(-0.000000130628,0.0585994,0.105479,0.0000000761539,-9.57759,-5.645611)">
<stop offset="0" style="stop-color:rgb(0%,0%,0%);stop-opacity:0.313725;"/>
<stop offset="0.222222" style="stop-color:rgb(0%,0%,0%);stop-opacity:0.27451;"/>
<stop offset="1" style="stop-color:rgb(0%,0%,0%);stop-opacity:0;"/>
</radialGradient>
<radialGradient id="radial2" gradientUnits="userSpaceOnUse" cx="450.90894" cy="189.57936" fx="450.90894" fy="189.57936" r="21.166656" gradientTransform="matrix(-0.000000130628,-0.0585994,0.105479,-0.0000000761539,-9.57759,47.696499)">
<stop offset="0" style="stop-color:rgb(0%,0%,0%);stop-opacity:0.313725;"/>
<stop offset="0.222222" style="stop-color:rgb(0%,0%,0%);stop-opacity:0.27451;"/>
<stop offset="1" style="stop-color:rgb(0%,0%,0%);stop-opacity:0;"/>
</radialGradient>
<radialGradient id="radial3" gradientUnits="userSpaceOnUse" cx="450.90894" cy="189.57936" fx="450.90894" fy="189.57936" r="21.166656" gradientTransform="matrix(0.000000130628,0.0585994,-0.105479,0.0000000761539,33.392363,-5.645611)">
<stop offset="0" style="stop-color:rgb(0%,0%,0%);stop-opacity:0.313725;"/>
<stop offset="0.222222" style="stop-color:rgb(0%,0%,0%);stop-opacity:0.27451;"/>
<stop offset="1" style="stop-color:rgb(0%,0%,0%);stop-opacity:0;"/>
</radialGradient>
<linearGradient id="linear0" gradientUnits="userSpaceOnUse" x1="255.32306" y1="233.5" x2="255.32304" y2="254.66666" gradientTransform="matrix(0.01002,0,0,0.0468795,9.349039,10.079088)">
<stop offset="0" style="stop-color:rgb(0%,0%,0%);stop-opacity:0.27451;"/>
<stop offset="1" style="stop-color:rgb(0%,0%,0%);stop-opacity:0;"/>
</linearGradient>
<linearGradient id="linear1" gradientUnits="userSpaceOnUse" x1="254" y1="-168.66667" x2="254" y2="233.5" gradientTransform="matrix(1,0,0,1,0,0)">
<stop offset="0" style="stop-color:rgb(39.215686%,70.980392%,96.470588%);stop-opacity:1;"/>
<stop offset="1" style="stop-color:rgb(25.882353%,64.705882%,96.078431%);stop-opacity:1;"/>
</linearGradient>
<linearGradient id="linear2" gradientUnits="userSpaceOnUse" x1="960" y1="1695.1182" x2="960" y2="175.11813" gradientTransform="matrix(0.0124035,0,0,0.0124035,-0.243394,0.00000000000000141)">
<stop offset="0" style="stop-color:rgb(74.117647%,74.117647%,74.117647%);stop-opacity:1;"/>
<stop offset="1" style="stop-color:rgb(87.843137%,87.843137%,87.843137%);stop-opacity:1;"/>
</linearGradient>
</defs>
<g id="surface1">
<path style=" stroke:none;fill-rule:nonzero;fill:url(#radial0);" d="M 13.644531 21.027344 L 15.628906 21.027344 L 15.628906 20.03125 L 13.644531 20.03125 Z M 13.644531 21.027344 "/>
<path style=" stroke:none;fill-rule:nonzero;fill:url(#radial1);" d="M 10.171875 21.027344 L 8.1875 21.027344 L 8.1875 22.019531 L 10.171875 22.019531 Z M 10.171875 21.027344 "/>
<path style=" stroke:none;fill-rule:nonzero;fill:url(#radial2);" d="M 10.171875 21.027344 L 8.1875 21.027344 L 8.1875 20.03125 L 10.171875 20.03125 Z M 10.171875 21.027344 "/>
<path style=" stroke:none;fill-rule:nonzero;fill:url(#radial3);" d="M 13.644531 21.027344 L 15.628906 21.027344 L 15.628906 22.019531 L 13.644531 22.019531 Z M 13.644531 21.027344 "/>
<path style=" stroke:none;fill-rule:nonzero;fill:url(#linear0);" d="M 10.171875 20.777344 L 13.644531 20.777344 L 13.644531 22.019531 L 10.171875 22.019531 Z M 10.171875 20.777344 "/>
<path style="fill-rule:nonzero;fill:url(#linear1);stroke-width:3;stroke-linecap:round;stroke-linejoin:miter;stroke:rgb(20%,20%,20%);stroke-opacity:1;stroke-miterlimit:4;" d="M 253.975747 -168.671091 C 365.048473 -168.671091 455.123205 -78.679685 455.123205 32.393042 C 455.123205 143.465768 365.048473 233.5405 253.975747 233.5405 C 142.986345 233.5405 52.911614 143.465768 52.911614 32.393042 C 52.911614 -78.679685 142.986345 -168.671091 253.975747 -168.671091 Z M 253.975747 -168.671091 " transform="matrix(0.0468795,0,0,0.0468795,0,10.079087)"/>
<path style=" stroke:none;fill-rule:nonzero;fill:rgb(0%,0%,0%);fill-opacity:0.196078;" d="M 11.90625 21.027344 C 6.683594 21.027344 2.480469 16.820312 2.480469 11.597656 C 2.480469 11.566406 2.480469 11.539062 2.480469 11.507812 C 2.53125 16.6875 6.714844 20.839844 11.90625 20.839844 C 17.097656 20.839844 21.285156 16.6875 21.332031 11.507812 C 21.332031 11.539062 21.335938 11.566406 21.335938 11.597656 C 21.335938 16.820312 17.128906 21.027344 11.90625 21.027344 Z M 11.90625 21.027344 "/>
<path style=" stroke:none;fill-rule:nonzero;fill:rgb(100%,100%,100%);fill-opacity:0.392157;" d="M 11.90625 2.171875 C 6.683594 2.171875 2.480469 6.375 2.480469 11.597656 C 2.480469 11.628906 2.480469 11.660156 2.480469 11.691406 C 2.53125 6.511719 6.714844 2.355469 11.90625 2.355469 C 17.097656 2.355469 21.285156 6.511719 21.332031 11.691406 C 21.332031 11.660156 21.335938 11.628906 21.335938 11.597656 C 21.335938 6.375 17.128906 2.171875 11.90625 2.171875 Z M 11.90625 2.171875 "/>
<path style=" stroke:none;fill-rule:nonzero;fill:rgb(12.941176%,12.941176%,12.941176%);fill-opacity:1;" d="M 11.90625 2.101562 C 6.648438 2.101562 2.410156 6.339844 2.410156 11.597656 C 2.410156 16.859375 6.648438 21.097656 11.90625 21.097656 C 17.167969 21.097656 21.40625 16.859375 21.40625 11.597656 C 21.40625 6.339844 17.167969 2.101562 11.90625 2.101562 Z M 11.90625 2.242188 C 17.09375 2.242188 21.265625 6.414062 21.265625 11.597656 C 21.265625 16.785156 17.09375 20.957031 11.90625 20.957031 C 6.722656 20.957031 2.550781 16.785156 2.550781 11.597656 C 2.550781 6.414062 6.722656 2.242188 11.90625 2.242188 Z M 11.90625 2.242188 "/>
<path style=" stroke:none;fill-rule:nonzero;fill:url(#linear2);" d="M 14.359375 5.886719 C 12.941406 5.886719 11.375 5.914062 10.089844 6.914062 C 8.71875 7.976562 7.9375 9.996094 7.9375 13.574219 L 7.9375 16.0625 C 7.933594 16.335938 8.074219 16.585938 8.308594 16.722656 C 8.542969 16.859375 8.832031 16.859375 9.066406 16.722656 C 9.296875 16.585938 9.441406 16.335938 9.4375 16.0625 L 9.4375 13.574219 C 9.4375 13.132812 9.449219 12.726562 9.472656 12.347656 L 13.890625 12.347656 L 13.890625 16.0625 C 13.886719 16.335938 14.03125 16.585938 14.261719 16.722656 C 14.496094 16.859375 14.785156 16.859375 15.019531 16.722656 C 15.253906 16.585938 15.394531 16.335938 15.390625 16.0625 L 15.390625 11.707031 C 15.398438 11.632812 15.398438 11.5625 15.390625 11.492188 L 15.390625 6.636719 C 15.390625 6.222656 15.054688 5.886719 14.640625 5.886719 C 14.546875 5.886719 14.453125 5.886719 14.359375 5.886719 Z M 13.890625 7.398438 L 13.890625 10.851562 L 9.644531 10.851562 C 9.917969 9.347656 10.425781 8.546875 11.007812 8.097656 C 11.71875 7.542969 12.726562 7.425781 13.890625 7.398438 Z M 13.890625 7.398438 "/>
<path style=" stroke:none;fill-rule:nonzero;fill:rgb(100%,100%,100%);fill-opacity:1;" d="M 14.359375 5.886719 C 12.941406 5.886719 11.375 5.914062 10.089844 6.914062 C 8.71875 7.976562 7.9375 9.996094 7.9375 13.574219 L 7.9375 13.949219 C 7.9375 10.375 8.71875 8.355469 10.089844 7.289062 C 11.375 6.292969 12.941406 6.265625 14.359375 6.265625 C 14.453125 6.265625 14.546875 6.265625 14.640625 6.265625 C 15.054688 6.265625 15.390625 6.601562 15.390625 7.015625 L 15.390625 6.636719 C 15.390625 6.222656 15.054688 5.886719 14.640625 5.886719 C 14.546875 5.886719 14.453125 5.886719 14.359375 5.886719 Z M 9.722656 10.851562 C 9.695312 10.96875 9.667969 11.097656 9.644531 11.226562 L 13.890625 11.226562 L 13.890625 10.851562 Z M 15.390625 11.492188 L 15.390625 11.707031 C 15.398438 11.632812 15.398438 11.5625 15.390625 11.492188 Z M 15.390625 11.492188 "/>
<path style=" stroke:none;fill-rule:nonzero;fill:rgb(0%,0%,0%);fill-opacity:0.235294;" d="M 13.890625 7.394531 C 12.726562 7.417969 11.71875 7.539062 11.007812 8.089844 C 10.425781 8.542969 9.917969 9.34375 9.644531 10.84375 L 9.75 10.84375 C 10.035156 9.660156 10.496094 8.984375 11.007812 8.585938 C 11.71875 8.035156 12.726562 7.914062 13.890625 7.890625 Z M 15.390625 11.984375 L 15.390625 12.195312 C 15.398438 12.125 15.398438 12.054688 15.390625 11.984375 Z M 9.472656 12.34375 C 9.449219 12.71875 9.4375 13.128906 9.4375 13.566406 L 9.4375 14.0625 C 9.4375 13.625 9.449219 13.214844 9.472656 12.839844 L 13.890625 12.839844 L 13.890625 12.34375 Z M 7.9375 16.058594 L 7.9375 16.554688 C 7.933594 16.824219 8.074219 17.078125 8.308594 17.214844 C 8.542969 17.351562 8.832031 17.351562 9.066406 17.214844 C 9.296875 17.078125 9.441406 16.824219 9.4375 16.554688 L 9.4375 16.058594 C 9.441406 16.328125 9.296875 16.582031 9.066406 16.71875 C 8.832031 16.855469 8.542969 16.855469 8.308594 16.71875 C 8.074219 16.582031 7.933594 16.328125 7.9375 16.058594 Z M 13.890625 16.058594 L 13.890625 16.554688 C 13.886719 16.824219 14.03125 17.078125 14.261719 17.214844 C 14.496094 17.351562 14.785156 17.351562 15.019531 17.214844 C 15.253906 17.078125 15.394531 16.824219 15.390625 16.554688 L 15.390625 16.058594 C 15.394531 16.328125 15.253906 16.582031 15.019531 16.71875 C 14.785156 16.855469 14.496094 16.855469 14.261719 16.71875 C 14.03125 16.582031 13.886719 16.328125 13.890625 16.058594 Z M 13.890625 16.058594 "/>
<path style="fill:none;stroke-width:3;stroke-linecap:round;stroke-linejoin:round;stroke:rgb(12.941176%,12.941176%,12.941176%);stroke-opacity:1;stroke-miterlimit:4;" d="M 306.304083 -89.428658 C 276.056971 -89.428658 242.643495 -88.84538 215.229447 -67.514084 C 185.98224 -44.849582 169.317164 -1.770362 169.317164 74.555682 L 169.317164 127.633947 C 169.233839 133.466723 172.233553 138.799547 177.233075 141.715935 C 182.232598 144.632323 188.398675 144.632323 193.398198 141.715935 C 198.314395 138.799547 201.397434 133.466723 201.314109 127.633947 L 201.314109 74.555682 C 201.314109 65.139915 201.564085 56.474076 202.064037 48.391514 L 296.305038 48.391514 L 296.305038 127.633947 C 296.221712 133.466723 299.304751 138.799547 304.220948 141.715935 C 309.220471 144.632323 315.386549 144.632323 320.386071 141.715935 C 325.385594 138.799547 328.385307 133.466723 328.301982 127.633947 L 328.301982 34.726152 C 328.468633 33.14297 328.468633 31.643113 328.301982 30.143257 L 328.301982 -73.430186 C 328.301982 -82.262676 321.136 -89.428658 312.30351 -89.428658 C 310.303701 -89.428658 308.303892 -89.428658 306.304083 -89.428658 Z M 296.305038 -57.181738 L 296.305038 16.477895 L 205.730354 16.477895 C 211.56313 -15.602375 222.395429 -32.684077 234.81091 -42.266495 C 249.976128 -54.098699 271.474076 -56.59846 296.305038 -57.181738 Z M 296.305038 -57.181738 " transform="matrix(0.0468795,0,0,0.0468795,0,10.079087)"/>
</g>
</svg>
